!!!OTL: Smilin' Through
!!!COM: Penn, Arthur
!!!LAR: Boehler, Hal
!! "Smilin' Through"; by Arthur Penn, arranged by Hal Boehler;
!! from "Close Harmony Classics for Barbershop Quartets" B. Feldman & Co.;
!! copyright 1918 & 1952 by M Witmark & Sons; pp. 4-5; in E- major;
!! NOTE:  The "tag ending" is encoded here rather than the regular ending.
**kern	**kern	**kern	**kern
*Ivox	*Ivox	*Ivox	*Ivox
*M3/4	*M3/4	*M3/4	*M3/4
*E-:	*E-:	*E-:	*E-:
4r	4r	8E-	4r
.	.	8F	.
=1	=1	=1	=1
4E-	4B-	4G	4e-
4BB-	4B-	4G	4d
4E-	4B-	4G	4d-
=2	=2	=2	=2
4En	4G	4B-	4d-
4F	4B-	4A-	4dn
4E-	4B-	4G	4d-
=3	=3	=3	=3
4AA-	4A-	4F	4c
4AA-	4A-	4E-	4c
4AA-	4A-	4F	4c-
=4	=4	=4	=4
2E-	2B-	2G	2e-
4r	4r	8E-	4r
.	.	8F	.
=5	=5	=5	=5
4E-	4B-	4G	4e-
4D	4Bn	4G	4f
4C	4B-	4G	4en
=6	=6	=6	=6
4C	4An	4G	4e-
4C	4A	4F	4e-
4FF	4A	4E-	4c
=7	=7	=7	=7
4BB-	4A-	[2.F	4d
4C	4A-	.	4e-
4C-	4A-	.	4e-
=8	=8	=8	=8
4BB-	4A-	4F]	4d
4r	4r	4r	4r
4r	4r	8c	4r
.	.	8d	.
=9	=9	=9	=9
4G	4B-	4e-	4c
4G-	4B-	4e-	4c
4E-	4An	4f	4c
=10	=10	=10	=10
4F	4A-	8d	8B-
.	.	8B-	8d
4r	4r	4r	4r
8r	8r	8An	4r
8r	8r	8B-	.
=11	=11	=11	=11
4G	4B-	4d-	4en
4G	4B-	4c	4e-
4C	4B-	4G	4e-
=12	=12	=12	=12
8G	8c	8B-	8en
[8F	8c	[8A-	[8e-
4F]	4c-	4A-]	4e-]
4r	4r	8G	4r
.	.	8F	.
=13	=13	=13	=13
8E-	8G	8B-	8e-
8E-	8B-	8G	8d-
8AA-	8A-	8E-	8c
8r	8r	8r	8r
4BB-	4A-	4F	4dn
=14	=14	=14	=14
8E-	8G	8B-	8e-
8C	8B-	8G	8en
8FF	8An	8E-	8c
8r	8r	8r	8r
4BB-;	4A-;	4F;	4d;
=15	=15	=15	=15
[2.E-	[2.G	[2.B-	[2.e-
=16	=16	=16	=16
4E-]	4G]	4B-]	4e-]
4r	4r	4r	4r
4r	4r	8E-	4r
.	.	8F	.
=17	=17	=17	=17
4E-	4B-	4G	4e-
4BB-	4B-	4G	4d
4E-	4B-	4G	4d-
=18	=18	=18	=18
4En	4G	4B-	4d-
4F	4B-	4A-	4dn
4E-	4B-	4G	4d-
=19	=19	=19	=19
4AA-	4A-	4F	4c
4AA-	4A-	4E-	4c
4AA-	4A-	4F	4c-
=20	=20	=20	=20
2E-	2B-	2G	2e-
4r	4r	8E-	4r
.	.	8F	.
=21	=21	=21	=21
4E-	4B-	4G	4e-
4D-	4B-	4G	4f
4C	4B-	4G	4en
=22	=22	=22	=22
4C	4An	4G	4e-
4C	4A	4F	4e-
4FF	4A	4E-	4c
=23	=23	=23	=23
4BB-	4A-	[2.F	4d
4C	4A-	.	4e-
4C-	4A-	.	4e-
=24	=24	=24	=24
4BB-	4A-	4F]	4d
4r	4r	4r	4r
4r	4r	8c	4r
.	.	8d	.
=25	=25	=25	=25
4G	4B	4e-	4c
4G-	4B-	4e-	4c
4E-	4An	4f	4c
=26	=26	=26	=26
4F	4A-	8d	8B-
.	.	8B-	8d
4r	4r	4r	4r
4r	4r	8An	4r
.	.	8B-	.
=27	=27	=27	=27
4BB-	4G	4d-	4e-
4AA-	4A-	4c	4e-
4C	4B-	4G	4en
=28	=28	=28	=28
8G	8c	8B-	8en
[8F	8c	[8A-	[8e-
4F]	4c-	4A-]	4e-]
4r	4r	8G	4r
.	.	8F	.
=29	=29	=29	=29
8E-	8G	8B-	8e-
8E-	8B-	8G	8d-
8AA-	8A-	8E-	8c
8r	8r	8r	8r
4BB-	4A-	4F	4dn
=30	=30	=30	=30
4D	4G	4Bn	4f
4C	4G	4c	4e-
4BB-	4G	4d-	4e-
=31	=31	=31	=31
4AA-	4A-	4c	4e-
4C	4G	4B-	4en
8F	8An	8c	8e-
8BB-	8A-	8d	8f
=32	=32	=32	=32
[2.E-	[2.B-	[2.e-	[2.g
=33	=33	=33	=33
4E-]	4B-]	4e-]	4g]
4r	4r	4r	4r
==	==	==	==
*-	*-	*-	*-
